X: 28572
T: Murphy's
R: hornpipe
M: 4/4
K: Dmajor
ABc|:d2 AF d2 AF|dcdf ecAg|f2 df gfed|c2 A2 A2 (3ABc|
d2 AF d2 AF|dcdf ecAg|fa a2 bgec|dfec d2:|
|:fg|afdg faga|bged ceag|fa a2 bged|c2 A2 A2 fg|
afdg faga|bged ceag|fa a2 bgec|dfec d2 d2:|
|:AG|F2 Dg fdec|dcdf ecAG|F2 Dg fdec|dfec d2 AG|
F2 Dg fdec|dcdf ecAg|fa a2 bgec|dfec d2 d2:|
|:ag|fefa g3e|fedf ecAg|f2 df gfed|c2 AG A3G|
FDAD BDAD|dcdf ecAg|fa a2 bgec|dfec d2:|
|:ag|fefa g3e|fefd ecAg|f2 df gfed|c2 A2 A2 Bc|
dcdf edeg|fefa gfgb|agba gfec|dfec d2:|

